launcher/android/assets/skins/day/svg/baseMapOnlineBitmap.svg

<svg enable-background="new 0 0 255.00 255.33" height="255.333" viewBox="0 0 255 255.33" width="255" xmlns="http://www.w3.org/2000/svg" xmlns:xlink="http://www.w3.org/1999/xlink"><linearGradient id="a" gradientTransform="matrix(-.62931956366 -.777146631463 .777146631463 -.62931956366 .636789259852 2.080885312533)" gradientUnits="objectBoundingBox" x1=".814661" x2="1.81466" y1=".888576" y2=".888576"><stop offset="0" stop-color="#425e7e"/><stop offset=".893501" stop-color="#70acf1"/><stop offset="1" stop-color="#90c5f1"/></linearGradient><radialGradient id="b" cx="93.8989" cy="83.4467" gradientUnits="userSpaceOnUse" r="68.6273"><stop offset=".125" stop-color="#90f19d"/><stop offset=".323276" stop-color="#8cf186"/><stop offset=".323276" stop-color="#89f170"/><stop offset=".50431" stop-color="#7edf69"/><stop offset="1" stop-color="#447e42"/></radialGradient><linearGradient id="c"><stop offset="0" stop-color="#7edf69"/><stop offset="1" stop-color="#447e42"/></linearGradient><radialGradient id="d" cx="103.588" cy="135.399" gradientUnits="userSpaceOnUse" r="40.6863" xlink:href="#c"/><radialGradient id="e" cx="149.543" cy="83.4385" gradientUnits="userSpaceOnUse" r="24.1421" xlink:href="#c"/><g stroke-linejoin="round"><path d="m116.202 25.6025c55.228 0 99.999 44.7705 99.999 99.9995 0 55.227-44.771 99.999-99.999 99.999-55.2286 0-100.0003-44.772-100.0003-99.999 0-55.229 44.7708-99.9995 100.0003-99.9995z" fill="url(#a)" stroke-width=".2"/><path d="m51.7421 56.731v2.451l-1.4706.9805-12.7451-.4903-10.7842 15.6862v3.4315l4.4117 3.9215-.4902 4.4116 1.9608 3.4316 3.9215 3.4312.9804 16.6662 3.9216 4.412 13.2353 15.196 10.7843 7.843 11.7647 3.922 4.9019 2.451.9804-8.333-6.3725-4.902-5.8824-1.961-1.4706-5.882h9.3138l2.9411 5.392 4.4118 3.921 6.3725 2.451 13.2357-3.431 1.96-5.392h-12.2545l-4.902-6.863-.4901-4.902 17.1566-20.0979 6.373-5.3922-8.334-14.7058 4.902-6.3726-4.411-8.8235-6.373-4.9018-1.9607-5.3924 2.9407-5.3921 4.412-4.9019 1.961 9.8038 7.843 2.451 3.431 4.902 2.451 12.7451 3.922 5.8824 2.941 3.4313 6.863-4.9021 1.961-3.4312 17.157.9804 1.47 3.9216 6.373-5.8824-2.451-4.4117-5.883-1.4707-3.921-3.4313-.49-5.8823 3.921-2.4511.981-17.6469-7.353-5.8824-6.373-1.9608h-11.274l-5.883 2.9412-3.921 3.9215-4.902-.4901-3.432-5.3922-1.96-3.4313-6.863-.4902-3.9217 1.9607-3.9216 2.9412-9.3137 1.4706-.9804 2.4509 1.4706 4.4119-4.4118.9802-1.9608-2.941-8.3333-.9805-2.451 4.4118-.4901 5.8823v2.451l-2.451 1.4706h-4.4118l-1.4706-5.3921-2.9411-.4902-2.9412 3.4313-4.902 4.4117 1.4706 7.353zm24.64-10.5473-3.4314-2.9411 4.4118.9802h4.4117l5.8824.4902.4901 6.3726 1.9608 1.4706 3.4314 5.3922 2.9412 2.451-.4902 5.8823-4.4118.9804-3.4314-1.9608-1.9607-4.4118-3.4314-5.3921-5.3921-.9804v-2.451zm-3.9216 34.8037 2.451-5.3921 6.3725-1.9607 4.902 4.902-.9804 6.3726-3.4314 4.9018-5.8823-1.9608-3.9216-4.4117z" fill="url(#b)" stroke="#006432" stroke-width="2"/><path d="m99.9114 141.772h-8.3333l-5.8823 7.353-2.451 8.333-.4902 5.392 10.7843 7.353 5.3921 3.922 4.902 9.804-10.7843.98-.9804 7.843-.4902 9.804 2.451 11.274 1.9608 2.451 16.6661 3.922 26.471-9.314z" fill="url(#d)" stroke="#006432" stroke-width="2"/><path d="m159.225 87.2374.49-5.8823 5.392-3.6764 2.451 1.4706 11.765 13.2353-2.696-11.2746-1.471-3.1862 1.961-3.9215 4.657-3.9216 4.902-6.1275-.735-4.6568 3.186-2.9411 4.657 1.7156 10.784 14.951-9.804 13.9707-14.951 8.8233z" fill="url(#e)" stroke="#006432" stroke-width="2"/><g stroke-width=".2"><path d="m33.6671 233.74v-67.2h24.57c7.53 0 13.3175 1.37 17.3625 4.11s6.0675 6.6 6.0675 11.58c0 3.61-1.23 6.767-3.69 9.473-2.46 2.704-5.605 4.587-9.435 5.647v.195c4.86.59 8.7425 2.357 11.6475 5.302s4.3575 6.533 4.3575 10.763c0 6.18-2.22 11.08-6.66 14.7s-10.505 5.43-18.195 5.43zm15.36-55.68v15.36h6.495c3.05 0 5.45-.73 7.2-2.19s2.625-3.47 2.625-6.03c0-4.76-3.595-7.14-10.785-7.14zm0 26.88v17.28h8.115c3.46 0 6.1725-.793 8.1375-2.378s2.9475-3.747 2.9475-6.487c0-2.62-.965-4.678-2.895-6.173s-4.63-2.242-8.1-2.242z"/><path d="m171.907 233.74h-15.36v-40.215c0-4.34.195-9.135.585-14.385h-.375c-.78 4.13-1.485 7.1-2.115 8.91l-15.75 45.69h-12.375l-16.035-45.225c-.44-1.22-1.145-4.345-2.115-9.375h-.42c.4 6.63.6 12.445.6 17.445v37.155h-13.4399v-67.2h21.9749l13.725 39.84c1.1 3.18 1.9 6.38 2.4 9.6h.285c.84-3.72 1.73-6.955 2.67-9.705l13.725-39.735h22.02z"/><path d="m202.627 210.7v23.04h-15.36v-67.2h23.64c16.88 0 25.32 7.155 25.32 21.465 0 6.77-2.402 12.245-7.207 16.425s-11.223 6.27-19.253 6.27zm0-32.64v21.12h5.7c7.72 0 11.58-3.56 11.58-10.68 0-6.96-3.86-10.44-11.58-10.44z"/></g></g></svg>

﻿<?xml version="1.0" encoding="utf-8"?>
<!DOCTYPE svg PUBLIC "-//W3C//DTD SVG 1.1//EN" "http://www.w3.org/Graphics/SVG/1.1/DTD/svg11.dtd">
<svg xmlns="http://www.w3.org/2000/svg" xmlns:xlink="http://www.w3.org/1999/xlink" version="1.1" baseProfile="full" width="255" height="255.333" viewBox="0 0 255.00 255.33" enable-background="new 0 0 255.00 255.33" xml:space="preserve">
	<g>
		<linearGradient id="SVGID_Fill1_" gradientUnits="objectBoundingBox" x1="0.814661" y1="0.888576" x2="1.81466" y2="0.888576" gradientTransform="rotate(231.000061 0.814661 0.888576)">
			<stop offset="0" stop-color="#425E7E" stop-opacity="1"/>
			<stop offset="0.893501" stop-color="#70ACF1" stop-opacity="1"/>
			<stop offset="1" stop-color="#90C5F1" stop-opacity="1"/>
		</linearGradient>
		<path fill="url(#SVGID_Fill1_)" stroke-width="0.2" stroke-linejoin="round" d="M 116.202,25.6025C 171.43,25.6025 216.201,70.373 216.201,125.602C 216.201,180.829 171.43,225.601 116.202,225.601C 60.9734,225.601 16.2017,180.829 16.2017,125.602C 16.2017,70.373 60.9725,25.6025 116.202,25.6025 Z "/>
		<g>
			<radialGradient id="SVGID_Fill2_" cx="93.8989" cy="83.4467" r="68.6273" gradientUnits="userSpaceOnUse">
				<stop offset="0.125" stop-color="#90F19D" stop-opacity="1"/>
				<stop offset="0.323276" stop-color="#8CF186" stop-opacity="1"/>
				<stop offset="0.323276" stop-color="#89F170" stop-opacity="1"/>
				<stop offset="0.50431" stop-color="#7EDF69" stop-opacity="1"/>
				<stop offset="1" stop-color="#447E42" stop-opacity="1"/>
			</radialGradient>
			<path fill="url(#SVGID_Fill2_)" stroke-width="2" stroke-linejoin="round" stroke="#006432" stroke-opacity="1" d="M 51.7421,56.731L 51.7421,59.182L 50.2715,60.1625L 37.5264,59.6722L 26.7422,75.3584L 26.7422,78.7899L 31.1539,82.7114L 30.6637,87.123L 32.6245,90.5546L 36.546,93.9858L 37.5264,110.652L 41.448,115.064L 54.6833,130.26L 65.4676,138.103L 77.2323,142.025L 82.1342,144.476L 83.1146,136.143L 76.7421,131.241L 70.8597,129.28L 69.3891,123.398L 78.7029,123.398L 81.644,128.79L 86.0558,132.711L 92.4283,135.162L 105.664,131.731L 107.624,126.339L 95.3695,126.339L 90.4675,119.476L 89.9774,114.574L 107.134,94.4761L 113.507,89.0839L 105.173,74.3781L 110.075,68.0055L 105.664,59.182L 99.291,54.2802L 97.3303,48.8878L 100.271,43.4957L 104.683,38.5938L 106.644,48.3976L 114.487,50.8486L 117.918,55.7506L 120.369,68.4957L 124.291,74.3781L 127.232,77.8094L 134.095,72.9073L 136.056,69.4761L 153.213,70.4565L 154.683,74.3781L 161.056,68.4957L 158.605,64.084L 152.722,62.6133L 148.801,59.182L 148.311,53.2997L 152.232,50.8486L 153.213,33.2017L 145.86,27.3193L 139.487,25.3585L 128.213,25.3585L 122.33,28.2997L 118.409,32.2212L 113.507,31.7311L 110.075,26.3389L 108.115,22.9076L 101.252,22.4174L 97.3303,24.3781L 93.4087,27.3193L 84.095,28.7899L 83.1146,31.2408L 84.5852,35.6527L 80.1734,36.6329L 78.2126,33.6919L 69.8793,32.7114L 67.4283,37.1232L 66.9382,43.0055L 66.9382,45.4565L 64.4872,46.9271L 60.0754,46.9271L 58.6048,41.535L 55.6637,41.0448L 52.7225,44.4761L 47.8205,48.8878L 49.2911,56.2408L 51.7421,56.731 Z M 76.3821,46.1837L 72.9507,43.2426L 77.3625,44.2228L 81.7742,44.2228L 87.6566,44.713L 88.1467,51.0856L 90.1075,52.5562L 93.5389,57.9484L 96.4801,60.3994L 95.9899,66.2817L 91.5781,67.2621L 88.1467,65.3013L 86.186,60.8895L 82.7546,55.4974L 77.3625,54.517L 77.3625,52.066L 76.3821,46.1837 Z M 72.4605,80.9874L 74.9115,75.5953L 81.284,73.6346L 86.186,78.5366L 85.2056,84.9092L 81.7742,89.811L 75.8919,87.8502L 71.9703,83.4385L 72.4605,80.9874 Z "/>
			<radialGradient id="SVGID_Fill3_" cx="103.588" cy="135.399" r="40.6863" gradientUnits="userSpaceOnUse">
				<stop offset="0" stop-color="#7EDF69" stop-opacity="1"/>
				<stop offset="1" stop-color="#447E42" stop-opacity="1"/>
			</radialGradient>
			<path fill="url(#SVGID_Fill3_)" stroke-width="2" stroke-linejoin="round" stroke="#006432" stroke-opacity="1" d="M 99.9114,141.772L 91.5781,141.772L 85.6958,149.125L 83.2448,157.458L 82.7546,162.85L 93.5389,170.203L 98.931,174.125L 103.833,183.929L 93.0487,184.909L 92.0683,192.752L 91.5781,202.556L 94.0291,213.83L 95.9899,216.281L 112.656,220.203L 139.127,210.889L 99.9114,141.772 Z "/>
			<radialGradient id="SVGID_Fill4_" cx="149.543" cy="83.4385" r="24.1421" gradientUnits="userSpaceOnUse">
				<stop offset="0" stop-color="#7EDF69" stop-opacity="1"/>
				<stop offset="1" stop-color="#447E42" stop-opacity="1"/>
			</radialGradient>
			<path fill="url(#SVGID_Fill4_)" stroke-width="2" stroke-linejoin="round" stroke="#006432" stroke-opacity="1" d="M 159.225,87.2374L 159.715,81.3551L 165.107,77.6787L 167.558,79.1493L 179.323,92.3846L 176.627,81.11L 175.156,77.9238L 177.117,74.0023L 181.774,70.0807L 186.676,63.9532L 185.941,59.2964L 189.127,56.3553L 193.784,58.0709L 204.568,73.0219L 194.764,86.9926L 179.813,95.8159L 159.225,87.2374 Z "/>
		</g>
	</g>
	<g>
		<path fill="#000000" fill-opacity="1" stroke-width="0.2" stroke-linejoin="round" d="M 33.6671,233.74L 33.6671,166.54L 58.2371,166.54C 65.7671,166.54 71.5546,167.91 75.5996,170.65C 79.6446,173.39 81.6671,177.25 81.6671,182.23C 81.6671,185.84 80.4371,188.997 77.9771,191.703C 75.5171,194.407 72.3721,196.29 68.5421,197.35L 68.5421,197.545C 73.4021,198.135 77.2846,199.902 80.1896,202.847C 83.0946,205.792 84.5471,209.38 84.5471,213.61C 84.5471,219.79 82.3271,224.69 77.8871,228.31C 73.4471,231.93 67.3821,233.74 59.6921,233.74L 33.6671,233.74 Z M 49.0271,178.06L 49.0271,193.42L 55.5221,193.42C 58.5721,193.42 60.9721,192.69 62.7221,191.23C 64.4721,189.77 65.3471,187.76 65.3471,185.2C 65.3471,180.44 61.7521,178.06 54.5621,178.06L 49.0271,178.06 Z M 49.0271,204.94L 49.0271,222.22L 57.1421,222.22C 60.6021,222.22 63.3146,221.427 65.2796,219.842C 67.2446,218.257 68.2271,216.095 68.2271,213.355C 68.2271,210.735 67.2621,208.677 65.3321,207.182C 63.4021,205.687 60.7021,204.94 57.2321,204.94L 49.0271,204.94 Z "/>
		<path fill="#000000" fill-opacity="1" stroke-width="0.2" stroke-linejoin="round" d="M 171.907,233.74L 156.547,233.74L 156.547,193.525C 156.547,189.185 156.742,184.39 157.132,179.14L 156.757,179.14C 155.977,183.27 155.272,186.24 154.642,188.05L 138.892,233.74L 126.517,233.74L 110.482,188.515C 110.042,187.295 109.337,184.17 108.367,179.14L 107.947,179.14C 108.347,185.77 108.547,191.585 108.547,196.585L 108.547,233.74L 95.1071,233.74L 95.1071,166.54L 117.082,166.54L 130.807,206.38C 131.907,209.56 132.707,212.76 133.207,215.98L 133.492,215.98C 134.332,212.26 135.222,209.025 136.162,206.275L 149.887,166.54L 171.907,166.54L 171.907,233.74 Z "/>
		<path fill="#000000" fill-opacity="1" stroke-width="0.2" stroke-linejoin="round" d="M 202.627,210.7L 202.627,233.74L 187.267,233.74L 187.267,166.54L 210.907,166.54C 227.787,166.54 236.227,173.695 236.227,188.005C 236.227,194.775 233.825,200.25 229.02,204.43C 224.215,208.61 217.797,210.7 209.767,210.7L 202.627,210.7 Z M 202.627,178.06L 202.627,199.18L 208.327,199.18C 216.047,199.18 219.907,195.62 219.907,188.5C 219.907,181.54 216.047,178.06 208.327,178.06L 202.627,178.06 Z "/>
	</g>
</svg>
